**kern	**kern
*staff2	*staff1
*clefF4	*clefG2
*k[b-e-a-]	*k[b-e-a-]
*M3/4	*M3/4
*E-:	*E-:
=-	=-
*	*^
8BBB-L	4d 4f	4r
8BB-J	.	.
8DDL	4.d 4.f	2B-
8BB-J	.	.
8BBB-L	.	.
8BB-J	8f 8a-	.
=274	=274	=274
8EE-L	(8fL 8a-	4B-
8BB-J	8e-J) 8g	.
8GGL	4e- 4g	4B-
8BB-J	.	.
8EE-L	8r	4r
8BB-J	8b-	.
=275	=275	=275
8BBB-L	(8b-L	4B-
8BB-J	8dJ) 8f	.
8DDL	4.d 4.f	2B-
8BB-J	.	.
8BBB-L	.	.
8BB-J	8f 8a-	.
=276	=276	=276
8EE-L	(8fL 8a-	4B-
8BB-J	8e-J) 8g	.
8GGL	4e- 4g	4B-
8BB-J	.	.
8EE-L	8r	4r
8BB-J	8b-	.
=277	=277	=277
4BBB- 4BB-	(8ee-L	4f 4a-
.	8ddJ)	.
4BB-	4dd	4f 4a-
4r	(8ccL	4r
.	8b-J)	.
=278	=278	=278
4AAA- 4AA-	(8ee-L	4f 4b-
.	8ddJ)	.
4AA-	4dd	4f 4b-
4r	4r	4r
*	*v	*v
=279	=279
4G 4e-	(8ee-L
.	8ddJ
4r	8ee-L)
.	8b-'J
4A- 4e-	(8ccL
.	8a-J)
=280	=280
4B- 4e-	(8gL
.	8b-J
4r	8e-L)
.	8g'J
4BB- 4F 4A-	(8fL
.	8dJ)
=281	=281
4E- 4G	(8e-L
.	8gJ)
4r	8b-'L
.	8g'J
4r	8b-'L
.	8ee-'J
=	=
*-	*-
